src/topics/icons/modx.svg

<svg height="329" preserveAspectRatio="xMidYMid" viewBox="0 0 256 329" width="256" xmlns="http://www.w3.org/2000/svg" xmlns:xlink="http://www.w3.org/1999/xlink"><linearGradient id="a" x1="85.106239%" x2="19.942385%" y1="55.780715%" y2="-16.8291%"><stop offset="0" stop-color="#80c3e6"/><stop offset="1" stop-color="#3380c2"/></linearGradient><linearGradient id="b" x1="123.372644%" x2="40.548484%" y1="66.096582%" y2="33.8333%"><stop offset="0" stop-color="#f38649"/><stop offset=".1849" stop-color="#f28147"/><stop offset=".4091" stop-color="#ef7242"/><stop offset=".6537" stop-color="#ea5a3a"/><stop offset=".911" stop-color="#e4382e"/><stop offset="1" stop-color="#e12a29"/></linearGradient><linearGradient id="c"><stop offset="0" stop-color="#42ab4a"/><stop offset="1" stop-color="#add155"/></linearGradient><linearGradient id="d" x1="-4.294961%" x2="71.981227%" xlink:href="#c" y1="79.692843%" y2="21.2866%"/><linearGradient id="e" x1="22.790023%" x2="77.211559%" xlink:href="#c" y1="124.295675%" y2="-24.295%"/><g transform="translate(14.769231)"><path d="m188.472615 101.984 49.001847-78.3975385h-117.868308l-16.285539 26.1267693z" fill="url(#a)"/><path d="m103.330462 49.7132308 8.339692-13.4104616 76.812308 65.6812308z" opacity=".15"/><path d="m214.392615 244.120615v-117.858461l-25.427692-15.894154-53.469538 84.457846z" fill="url(#b)"/><path d="m135.495385 194.820923 13.208615 8.246154 40.260923-92.699077z" opacity=".15"/><path d="m24.5538462 0v117.860923l27.2713846 15.891692 136.6301542-31.783384z" fill="url(#d)"/><path d="m51.2541538 142.739692-48.99938457 77.07077h117.86092277l68.861539-109.442462z" fill="url(#e)"/></g><path d="m.00492308 319.657846h6.85292307l3.42646155-41.851077h-7.01784616v-8.076307h18.84553846l12.8886154 32.716307c.9772308 2.855385 1.3858461 4.812308 1.3858461 4.812308h.1624616s.4086154-1.956923 1.4695384-4.812308l12.8073847-32.716307h18.8430769v8.076307h-6.9316923l3.3427692 41.851077h6.8529231v7.995077h-23.7415385v-7.995077h6.4443077l-2.1193846-29.201231c-.1624615-2.043077.2461538-5.385846.2461538-5.385846h-.2461538s-.6547692 3.177846-1.3858462 5.139693l-11.0966153 26.67323h-9.1372308l-11.0941539-26.67323c-.736-1.961847-1.3046153-5.139693-1.3046153-5.139693h-.3273847s.4086154 3.337846.2461539 5.385846l-2.1193846 29.201231h6.5255384v7.995077h-23.8227692v-7.995077zm106.96369192-50.907077c17.129847 0 30.018462 12.972308 30.018462 29.536 0 17.051077-12.888615 30.345846-30.018462 30.345846-17.1347688 0-30.0233842-13.294769-30.0233842-30.345846 0-16.566154 12.8886154-29.536 30.0233842-29.536zm0 50.498462c10.441847 0 19.010462-9.053539 19.010462-20.964923 0-11.424-8.566154-20.155077-19.010462-20.155077-10.4443073 0-19.0104612 8.733538-19.0104612 20.155077 0 11.913846 8.5686154 20.964923 19.0104612 20.964923zm35.332923.408615h6.929231v-41.851077h-6.929231v-8.076307h25.043693c4.657231 0 8.324923.246153 12.076307 1.383384 11.256616 3.345231 18.764308 13.299692 18.764308 27.574154 0 13.705846-6.936615 23.576615-17.947077 27.249231-3.921231 1.383384-7.995077 1.708307-12.812307 1.708307h-25.124924zm24.637539-.568615c3.667692 0 6.606769-.327385 9.462154-1.474462 6.609231-2.692923 10.769231-9.462154 10.769231-18.924307 0-9.792-4.403693-16.477539-11.177847-19.089231-2.934153-1.142154-5.629538-1.302154-9.053538-1.302154h-7.020308v40.790154zm37.388308.568615h5.142153l14.601847-21.373538-14.198154-20.477539h-5.142154v-8.076307h21.868308v8.076307h-5.71077l7.995077 11.995077c1.065846 1.299692 1.634462 2.446769 1.634462 2.446769h.16c0 .07877.566154-1.065846 1.550769-2.446769l7.746462-11.995077h-5.548308v-8.076307h21.048615v8.076307h-5.058461l-14.683077 21.289846 14.436923 20.561231h5.139692v7.995077h-21.947077v-7.995077h5.71077l-8.076308-12.155077c-1.058462-1.383384-1.629539-2.525538-1.629539-2.525538h-.162461c-.162462 0-.654769 1.144615-1.548308 2.525538l-7.748923 12.155077h5.624615v7.995077h-21.203692z"/></svg>

<?xml version="1.0" encoding="UTF-8" standalone="no"?>
<svg width="256px" height="329px" viewBox="0 0 256 329" version="1.1" xmlns="http://www.w3.org/2000/svg" xmlns:xlink="http://www.w3.org/1999/xlink" preserveAspectRatio="xMidYMid">
    <defs>
        <linearGradient x1="85.1062385%" y1="55.7807153%" x2="19.9423853%" y2="-16.8290998%" id="linearGradient-1">
            <stop stop-color="#80C3E6" offset="0%"></stop>
            <stop stop-color="#3380C2" offset="100%"></stop>
        </linearGradient>
        <linearGradient x1="123.372644%" y1="66.0965824%" x2="40.5484837%" y2="33.8332996%" id="linearGradient-2">
            <stop stop-color="#F38649" offset="0%"></stop>
            <stop stop-color="#F28147" offset="18.49%"></stop>
            <stop stop-color="#EF7242" offset="40.91%"></stop>
            <stop stop-color="#EA5A3A" offset="65.37%"></stop>
            <stop stop-color="#E4382E" offset="91.1%"></stop>
            <stop stop-color="#E12A29" offset="100%"></stop>
        </linearGradient>
        <linearGradient x1="-4.29496133%" y1="79.6928428%" x2="71.981227%" y2="21.2866003%" id="linearGradient-3">
            <stop stop-color="#42AB4A" offset="0%"></stop>
            <stop stop-color="#ADD155" offset="100%"></stop>
        </linearGradient>
        <linearGradient x1="22.7900232%" y1="124.295675%" x2="77.2115587%" y2="-24.2950001%" id="linearGradient-4">
            <stop stop-color="#42AB4A" offset="0%"></stop>
            <stop stop-color="#ADD155" offset="100%"></stop>
        </linearGradient>
    </defs>
	<g>
		<g transform="translate(14.769231, 0.000000)">
			<path d="M188.472615,101.984 L237.474462,23.5864615 L119.606154,23.5864615 L103.320615,49.7132308 L188.472615,101.984 Z" fill="url(#linearGradient-1)"></path>
			<path d="M103.330462,49.7132308 L111.670154,36.3027692 L188.482462,101.984 L103.330462,49.7132308 Z" opacity="0.15" fill="#000000"></path>
			<path d="M214.392615,244.120615 L214.392615,126.262154 L188.964923,110.368 L135.495385,194.825846 L214.392615,244.120615 Z" fill="url(#linearGradient-2)"></path>
			<path d="M135.495385,194.820923 L148.704,203.067077 L188.964923,110.368 L135.495385,194.820923 Z" opacity="0.15" fill="#000000"></path>
			<path d="M24.5538462,0 L24.5538462,117.860923 L51.8252308,133.752615 L188.455385,101.969231 L24.5538462,0 Z" fill="url(#linearGradient-3)"></path>
			<path d="M51.2541538,142.739692 L2.25476923,219.810462 L120.115692,219.810462 L188.977231,110.368 L51.2541538,142.739692 Z" fill="url(#linearGradient-4)"></path>
		</g>
		<path d="M0.00492307692,319.657846 L6.85784615,319.657846 L10.2843077,277.806769 L3.26646154,277.806769 L3.26646154,269.730462 L22.112,269.730462 L35.0006154,302.446769 C35.9778462,305.302154 36.3864615,307.259077 36.3864615,307.259077 L36.5489231,307.259077 C36.5489231,307.259077 36.9575385,305.302154 38.0184615,302.446769 L50.8258462,269.730462 L69.6689231,269.730462 L69.6689231,277.806769 L62.7372308,277.806769 L66.08,319.657846 L72.9329231,319.657846 L72.9329231,327.652923 L49.1913846,327.652923 L49.1913846,319.657846 L55.6356923,319.657846 L53.5163077,290.456615 C53.3538462,288.413538 53.7624615,285.070769 53.7624615,285.070769 L53.5163077,285.070769 C53.5163077,285.070769 52.8615385,288.248615 52.1304615,290.210462 L41.0338462,316.883692 L31.8966154,316.883692 L20.8024615,290.210462 C20.0664615,288.248615 19.4978462,285.070769 19.4978462,285.070769 L19.1704615,285.070769 C19.1704615,285.070769 19.5790769,288.408615 19.4166154,290.456615 L17.2972308,319.657846 L23.8227692,319.657846 L23.8227692,327.652923 L0,327.652923 L0,319.657846 L0.00492307692,319.657846 Z M106.968615,268.750769 C124.098462,268.750769 136.987077,281.723077 136.987077,298.286769 C136.987077,315.337846 124.098462,328.632615 106.968615,328.632615 C89.8338462,328.632615 76.9452308,315.337846 76.9452308,298.286769 C76.9452308,281.720615 89.8338462,268.750769 106.968615,268.750769 Z M106.968615,319.249231 C117.410462,319.249231 125.979077,310.195692 125.979077,298.284308 C125.979077,286.860308 117.412923,278.129231 106.968615,278.129231 C96.5243077,278.129231 87.9581538,286.862769 87.9581538,298.284308 C87.9581538,310.198154 96.5267692,319.249231 106.968615,319.249231 Z M142.301538,319.657846 L149.230769,319.657846 L149.230769,277.806769 L142.301538,277.806769 L142.301538,269.730462 L167.345231,269.730462 C172.002462,269.730462 175.670154,269.976615 179.421538,271.113846 C190.678154,274.459077 198.185846,284.413538 198.185846,298.688 C198.185846,312.393846 191.249231,322.264615 180.238769,325.937231 C176.317538,327.320615 172.243692,327.645538 167.426462,327.645538 L142.301538,327.645538 L142.301538,319.657846 Z M166.939077,319.089231 C170.606769,319.089231 173.545846,318.761846 176.401231,317.614769 C183.010462,314.921846 187.170462,308.152615 187.170462,298.690462 C187.170462,288.898462 182.766769,282.212923 175.992615,279.601231 C173.058462,278.459077 170.363077,278.299077 166.939077,278.299077 L159.918769,278.299077 L159.918769,319.089231 L166.939077,319.089231 L166.939077,319.089231 Z M204.327385,319.657846 L209.469538,319.657846 L224.071385,298.284308 L209.873231,277.806769 L204.731077,277.806769 L204.731077,269.730462 L226.599385,269.730462 L226.599385,277.806769 L220.888615,277.806769 L228.883692,289.801846 C229.949538,291.101538 230.518154,292.248615 230.518154,292.248615 L230.678154,292.248615 C230.678154,292.327385 231.244308,291.182769 232.228923,289.801846 L239.975385,277.806769 L234.427077,277.806769 L234.427077,269.730462 L255.475692,269.730462 L255.475692,277.806769 L250.417231,277.806769 L235.734154,299.096615 L250.171077,319.657846 L255.310769,319.657846 L255.310769,327.652923 L233.363692,327.652923 L233.363692,319.657846 L239.074462,319.657846 L230.998154,307.502769 C229.939692,306.119385 229.368615,304.977231 229.368615,304.977231 L229.206154,304.977231 C229.043692,304.977231 228.551385,306.121846 227.657846,307.502769 L219.908923,319.657846 L225.533538,319.657846 L225.533538,327.652923 L204.329846,327.652923 L204.327385,319.657846 Z" fill="#000000"></path>
	</g>
</svg>
